!!!OTL: Die Koenigskinder Die Muehle die dreht ihre Fluegel
!!!ARE: Europa, Mitteleuropa, Deutschland
!!!YOR: 1, S. 217
!!    1833 gedruckt
!!!SCT: Q0020K
!!!YEM: Copyright 1995, estate of Helmut Schaffrath.
**kern
*ICvox
*Ivox
*M6/8
*k[b-e-]
*g:
{8d
=1
8g
8g
8a
8b-
8a
8b-
=2
4g
8a
4b-}
{8a
=3
8g
8a
8b-
8cc
8b-
8a
=4
4g
8f#
4g}
{16g
16a
=5
8b-
8b-
8b-
8cc
8cc
8cc
=6
4.dd
4cc}
{8cc
=7
8b-
8a
8g
4a
8d
=8
4.g
4r}
==
!!!AGN: Ballade, Liebe, Trennung, Tod
!!!ONB: ESAC (Essen Associative Code) Database: BALLADE
!!!AMT: compound duple
!!!AIN: vox
!!!EED: Helmut Schaffrath
!!!EEV: 1.0
*-
